X:165
M:6/8
L:1/8
Q:3/8=100
K:G
[g3B3D3G,3]dBG|g(e/f/)g dBG|ecA dBG|cAF G"G.Fl."[BD][dG,]|\
[g3B3D3G,3]dBG|g(e/f/)g dBG|ecA dBG|cAF [G3G,3]:|
|:B2 c dBd|ege dBd|ege dBG| cAF G[BD][dB,]|\
|:(B2 G)(c2 A)|(B2 G)(c2 A)|B2 g dBG|cAF G"G.Fl."[BD][dB,]|\
([B2B,2][GG,]) ([c2C2][AA,])|([B2B,2][GG,]) ([c2C2][AA,])|\

